!!!OTL: Keinen Schreiber.
!!!ARE: Europa, Mitteleuropa, Deutschland
!!!SCT: A0224
!!!TXL: @@GMH
!!!YEM: Copyright 1995, estate of Helmut Schaffrath.
**kern	**text
*M4/2	*
*met(c|)	*
*clefC4	*
*k[]	*
*D:dor	*
=1	=1
!LO:TX:a:t=dor.	!
2ryy	.
{2d	Mein
2d	müt-
2d	-ter-
=2	=2
2d	-lein,
2d	mein
2A	müt-
2A	-ter-
=3	=3
1.A}	-lein,
{2A	das
=4	=4
2.e	fra-
4d	-get
2c	a-
2B	-ber
=5	=5
1A	mich:
1r}	.
=6	=6
{2.d	ob
4d	ich
2d	wolt
2d	ein
=7	=7
1c	ſchrei-
1A}	-ber?
=8	=8
{2.c	'a-
4B-	-we,
2A/	nein!'
2G	ſprach
=9	=9
1F	ich,
1r}	.
=10	=10
{2F	'nem
2F	ich
2G	denn
2G	ein
=11	=11
1A	ſchrei-
1D	-ber
=12	=12
2r}	.
{2d	ʒu
2c	ei-
2d	-nem
=13	=13
*lig	*
1e	man-
2.d	.
8cL	.
8BJ	.
*Xlig	*
=14	=14
1A	-ne,
2r}	.
{2d	ſo
=15	=15
2d	hieß
2d	man
2d	mich
2d	fraw
=16	=16
2.c	ſchrei-
4B-	-be-
1A}	-rin
=17	=17
{2d	vnd
2d	ein
2d	tin-
2d	-ten-
=18	=18
2.c	-ʒe-
4B-	-te-
2A/}	-rin*),
{2G	wer
=19	=19
2A/	mir
2F	ein
1E	ſchan-
=20	=20
2D	-de,
2G	kein
2A/	er
2F	im
=21	=21
1E	lan-
1D}	-de.
==	==
!!!GTL: Liebeslieder
!!!AGN: Romanze, Ballade, Lied
!! Joh. Ott III 1544 No. 39
!!!ONB: ESAC (Essen Associative Code) Database: ALTDEU
!!!AMT: simple quadruple
!!!AIN: vox
!!!EED: Helmut Schaffrath
!!!EEV: 1.0
!!@@COMMENT: "Worterklärung: *) zeten, ahd.zatjan, zetjan, mhd. zeten, zetten=zertheilen,
!! zerstreuen ⁊c. also hier=die Tinte verklexen."
!!@@END:
!!!AMD: Dorian
!!!URL-scan: https://rosdok.uni-rostock.de/mcrviewer/recordIdentifier/rosdok_ppn738218359/iview2/phys_0379.iview2?x=-891.612634679675&y=2317.5905066644773&scale=0.3769446600792666&rotation=0&layout=singlePageLayout
!!!ENC: Anna Maria Matuszewska
!!!EEV: 2024/08/03
*-	*-
